X:46
T:Persia
T:SM
S:John Moore's Book 3
Z:Transcribed by Edmund Spriggs 05/2021
%%VWML: Moore1-4495-p37-0
F:https://www.vwml.org/record/Moore3/4495/p37
N:Tune continues on jpeg page 38
N:Note values are shown as they appear in the manuscript, even when
N:this means that the parts are not in time with each other.
M:2/4
L:1/8
V:1 clef=treble
V:2 clef=treble
V:3 clef=treble
V:4 clef=bass
K:D
[V:1]A2A G|F<A A2|A2B2|c2BA|A2^G2|A4|]
[V:2]d2d d|d2c2|d2d2|e2(d/e/f/g/)|e2(ed)|c4|]
[V:3]"Air"d2A B|A<FE2|D2F^G|A2(B/c/e/d/)|c2B2|A4|]
[V:4]D,2F, G,|A,2 G,2|D,2 D,2|(C,A,,)D,2|E,2E,2|A,,4|]
[V:1]A2d d|d d d d|d2z2|z4|!fermata!z2z1A|
[V:2]f2f d|f f g g|f2d2|e e c c|!fermata!d2z2|
[V:3]d2F G|A A B B|A2F2|"P"G G E E|!fermata!F2z1A|
[V:4]D,2A, G,|F, D, B,, G,,|D,2D,2|G,, G,, B,, B,,|!fermata!D,2z2|
[V:1]B> B (B/A/) (G/F/)|G >G G G| B B (c/B/) (A/^G/)|A> A A c|
[V:2]z2z1d2|d> d c (e/f/)|[^gd]>  [gd] g e|e e (a/b/) (a/g/)|
[V:3]d> d (d/c/) (B/A/)|B> B c (B/d/)|e e (e/d/) (c/B/)|c> c c> A2|
[V:4]z2z1D,2|G,> G, (B,/A,/) (G,/F,/)|E,> E, E, E,|A,> A, (A,/G,/) (F,/E,/)|
[V:1]d2z1d2|(dc)B B2 |A2A2|A4|]
[V:2]f g a f|g3 g|(ag) (fe)|f4|]
[V:3]d2z1A|Bcd g|(fe) (dc)|d4|]
[V:4](D, E, F,) D,|(G,A,B,) G,2|A,2A,,2|D,4|]

